X:380
T:Maid at the Well, The
T:Castle Street Jig, The
T:Clonmore Jig, The
R:jig
D:Tommy Keane & Jacqueline McCarthy: The Wind among the Reeds
Z:id:hn-jig-380
M:6/8
K:G
GED ~D3|GEG c2e|dBG GAB|AGE EDE|
GED ~D3|GEG c2e|dBG GAB|1 AGF G2D:|2 AGF GBd||
|:gdB GBd|gdB c2e|dBG GAB|AGE ~E3|
gdB GBd|gdB c2e|dBG GAB|AGF GBd|
gdB GBd|gdB c2e|dBG GAB|AGE EDE|
GED ~D3|GEG c2e|dBG GAB|AGF G2D||
